X:1
T:Die heil'gen drei König'
L:1/8
M:3/4
K:G
V:1 treble nm="Voice"
V:1
"^1.""^2.""^3." d2"G" G2 (GA) | (BG)"D" A2 A2 | (FD)"G" G2 (GA) |[K:treble]"A" (BG)"D" A4 | %4
w: Die heil'- gen _|drei _ Kö- nig'|mit _ ih- ri- *|gem _ Stern,|
w: Die heil'- gen _|drei _ Kö- nig'|mit _ ih- ri- *|gem _ Stern,|
w: Die heil'- gen _|drei _ Kö- nig'|mit _ ih- ri- *|gem _ Stern|
 d2"G" G2 (GA) | (BG)"D" A2 A2 | FD"G" G2 B2 |"D7" A2"G" G4 |"D" A2"G" (B2 G2) |"C" c2"G" B2 A2 | %10
w: die kom- men _|ge- * gan- gen,|ihr _ Frau- en|und Herrn.|Der Stern _|gab ih- nen|
w: sie brin- gen _|dem _ Kind- lein|das _ Op- fer|so gern.|Sie rei- sen|in schne- *|
w: knien nie- der _|und _ eh- ren|das _ Kind- lein,|den Herrn.|Ein' se- li-|ge, fröh- lich-|
 G2"D" A4 | A2"G" B2 d2 | G2"G" A2 G2 |"D" F2"G" G4 |] %14
w: den Schein.|Ein neu- es|Jahr geht uns|her- ein|
w: ller Eil|in drei- zehn|Tag vier- hun-|dert Meil.|
w: e Zeit|ver- leih Gott|uns im Him-|mel- reich.|

